X:1
T:Title
%%score ( 1 2 ) { 3 | 4 }
L:1/8
Q:1/4=103
M:4/4
K:G
V:1 treble nm="Grand Piano, Soprano"
V:2 treble 
V:3 bass nm="Choir Pad, Lost and Found, J. Sammis"
V:4 bass 
V:1
 [B,D][B,D][A,^C][B,D] [=CE]2 [CG]2 | [B,G]4 [B,D]4 | [DB][DB][^C_B][D=B] [Ec]2 [DB]2 | [CE]6 z2 | %4
w: By~Carl~Fischer * * * * *||||
 [CA][CA][B,^G][CA] [DB]2 [DA]2 | [Dd]4 [DG]4 | [DF][DF][DA][DB] [DF]2 [^CE]2 | D6 z2 | %8
w: ||||
 [Gd]2 [Gd]2 [Gd]3 [GB] | [Ge]2 [Gd]2 BA [DG]2 | [Gd]2 [Gd]2 [Gd]3 [GB] | [Ge]2 dB [GB]2 [FA]2 | %12
w: ||||
 [GB]2 [GB]2 [GB]3 G | [EA]2 [EG]2 [EG]>[DF] [CE]2 | [B,D][B,D][B,D][DB] [DB]2 [CA]>[DB] | %15
w: |||
 [DA]4 [DG]4- | [DG]4 z4 |] %17
w: ||
V:2
 x8 | x8 | x8 | x8 | x8 | x8 | x8 | x8 | x8 | z4 G2 z2 | x8 | z2 G2 z4 | x8 | x8 | x8 | x8 | x8 |] %17
V:3
 G,G,G,G, G,2 E,2 | D,4 G,4 | G,G,G,G, G,2 G,2 | G,6 z2 | F,F,=F,^F, F,2 F,2 | G,4 G,4 | %6
 A,A,F,G, A,2 G,2 | F,6 z2 | B,2 B,2 B,3 D | C2 B,2 DC B,2 | B,2 B,2 B,3[K:treble] D | %11
 C2 B,D D2 D2 | D2 D2 D3 B, | C2 C2 C2[K:bass] G,2 | G,G,G,G, G,2 F,2 | C4 B,4- | B,4 z4 |] %17
V:4
 G,,G,,G,,G,, C,2 C,2 | G,,4 G,,4 | G,,G,,G,,G,, G,,2 G,,2 | C,6 z2 | D,D,D,D, D,2 C,2 | %5
 B,,4 B,,4 | A,,A,,A,,A,, A,,2 A,,2 | D,6 z2 | G,2 G,2 G,3 G, | G,2 G,2 G,2 G,2 | G,2 G,2 G,3 G, | %11
 G,2 G,2 D,2 D,2 | G,2 G,2 G,3 G, | C,2 C,2 C,2 C,2 | D,D,D,D, D,2 D,2 | D,4 G,,4- | G,,4 z4 |] %17

